artwork/resources/intui/icons/shell/toolbar/profiler.svg

<svg width="16" height="16" viewBox="0 0 16 16" fill="none" xmlns="http://www.w3.org/2000/svg">
<g id="profiler/light" clip-path="url(#clip0_2_593)">
<g id="toolwindow / profiler">
<g id="meter">
<path fill-rule="evenodd" clip-rule="evenodd" d="M12.157 7.20216C12.4154 6.99462 12.4566 6.61696 12.249 6.35863C12.0415 6.10029 11.6638 6.05911 11.4055 6.26665L8.92772 8.25718C8.6568 8.09393 8.33937 8.00002 8.00001 8.00002C7.0059 8.00002 6.20001 8.8059 6.20001 9.80001C6.20001 10.7941 7.0059 11.6 8.00001 11.6C8.99412 11.6 9.80001 10.7941 9.80001 9.80001C9.80001 9.58323 9.76169 9.37539 9.69144 9.18291L12.157 7.20216ZM8.80001 9.80001C8.80001 10.2418 8.44184 10.6 8.00001 10.6C7.55818 10.6 7.20001 10.2418 7.20001 9.80001C7.20001 9.35819 7.55818 9.00002 8.00001 9.00002C8.44184 9.00002 8.80001 9.35819 8.80001 9.80001Z" fill="#6C707E"/>
<path fill-rule="evenodd" clip-rule="evenodd" d="M8 3.50002C4.41015 3.50002 1.5 6.41016 1.5 10C1.5 10.8909 1.76974 12.0874 2.13917 13H13.8608C14.2303 12.0874 14.5 10.8909 14.5 10C14.5 6.41016 11.5899 3.50002 8 3.50002ZM0.5 10C0.5 5.85788 3.85786 2.50002 8 2.50002C12.1421 2.50002 15.5 5.85788 15.5 10C15.5 11.1604 15.1228 12.6806 14.6336 13.7304C14.5554 13.8984 14.3841 14 14.1987 14H1.80126C1.61594 14 1.44463 13.8984 1.36637 13.7304C0.877241 12.6806 0.5 11.1604 0.5 10Z" fill="#6C707E"/>
</g>
</g>
</g>
<defs>
<clipPath id="clip0_2_593">
<rect width="16" height="16" fill="white"/>
</clipPath>
</defs>
</svg>

<svg width="16" height="16" viewBox="0 0 16 16" fill="none" xmlns="http://www.w3.org/2000/svg"><g clip-path="url(#clip0_2_593)" fill-rule="evenodd" clip-rule="evenodd" fill="#6C707E"><path d="M12.157 7.202a.6.6 0 1 0-.752-.935l-2.477 1.99a1.8 1.8 0 1 0 .764.926l2.465-1.98zM8.8 9.8a.8.8 0 1 1-1.6 0 .8.8 0 0 1 1.6 0z"/><path d="M8 3.5A6.5 6.5 0 0 0 1.5 10c0 .89.27 2.087.64 3h11.72c.37-.913.64-2.11.64-3A6.5 6.5 0 0 0 8 3.5zM.5 10a7.5 7.5 0 1 1 15 0c0 1.16-.377 2.68-.866 3.73a.475.475 0 0 1-.435.27H1.8a.475.475 0 0 1-.435-.27C.877 12.68.5 11.16.5 10z"/></g><defs><clipPath id="clip0_2_593"><path fill="#fff" d="M0 0h16v16H0z"/></clipPath></defs></svg>
